svgs/sharp-solid/candle-holder.svg

<svg xmlns="http://www.w3.org/2000/svg" viewBox="0 0 448 512"><!--! Font Awesome Pro 6.6.0 by @fontawesome - https://fontawesome.com License - https://fontawesome.com/license (Commercial License) Copyright 2024 Fonticons, Inc. --><path d="M240 112C240 64 160 0 160 0s-80 64-80 112c0 44.2 35.8 80 80 80s80-35.8 80-80zM128 224l-64 0 0 240-40 0L0 464l0 48 24 0 352 0c39.8 0 72-32.2 72-72s-32.2-72-72-72s-72 32.2-72 72c0 8.4 1.4 16.5 4.1 24L256 464l0-240-96 0 0 48 0 16-32 0 0-16 0-48zM352 440a24 24 0 1 1 48 0 24 24 0 1 1 -48 0z"/></svg>

<svg xmlns="http://www.w3.org/2000/svg" viewBox="0 0 448 512"><!--! Font Awesome Pro 6.4.0 by @fontawesome - https://fontawesome.com License - https://fontawesome.com/license (Commercial License) Copyright 2023 Fonticons, Inc. --><path d="M240 112C240 64 160 0 160 0s-80 64-80 112c0 44.2 35.8 80 80 80s80-35.8 80-80zM128 224H64V464H24 0v48H24 376c39.8 0 72-32.2 72-72s-32.2-72-72-72s-72 32.2-72 72c0 8.4 1.4 16.5 4.1 24H256V224H160v48 16H128V272 224zM352 440a24 24 0 1 1 48 0 24 24 0 1 1 -48 0z"/></svg>
